pieces/cburnett_brown/bw.svg

<svg width="45" height="45" viewBox="0 0 45 45" fill="none" xmlns="http://www.w3.org/2000/svg">
<path fill-rule="evenodd" clip-rule="evenodd" d="M9 36C12.39 35.03 19.11 36.43 22.5 34C25.89 36.43 32.61 35.03 36 36C36 36 37.65 36.54 39 38C38.32 38.97 37.35 38.99 36 38.5C32.61 37.53 25.89 38.96 22.5 37.5C19.11 38.96 12.39 37.53 9 38.5C7.646 38.99 6.677 38.97 6 38C7.354 36.06 9 36 9 36Z" fill="#E6D5B8" stroke="#2D231F" stroke-width="1.5" stroke-linejoin="round"/>
<path fill-rule="evenodd" clip-rule="evenodd" d="M15 32C17.5 34.5 27.5 34.5 30 32C30.5 30.5 30 30 30 30C30 27.5 27.5 26 27.5 26C33 24.5 33.5 14.5 22.5 10.5C11.5 14.5 12 24.5 17.5 26C17.5 26 15 27.5 15 30C15 30 14.5 30.5 15 32Z" fill="#E6D5B8" stroke="#2D231F" stroke-width="1.5" stroke-linejoin="round"/>
<path fill-rule="evenodd" clip-rule="evenodd" d="M25 8C25 8.66304 24.7366 9.29893 24.2678 9.76777C23.7989 10.2366 23.163 10.5 22.5 10.5C21.837 10.5 21.2011 10.2366 20.7322 9.76777C20.2634 9.29893 20 8.66304 20 8C20 7.33696 20.2634 6.70107 20.7322 6.23223C21.2011 5.76339 21.837 5.5 22.5 5.5C23.163 5.5 23.7989 5.76339 24.2678 6.23223C24.7366 6.70107 25 7.33696 25 8V8Z" fill="#E6D5B8" stroke="#2D231F" stroke-width="1.5" stroke-linejoin="round"/>
<path d="M17.5 26H27.5M15 30H30M22.5 15.5V20.5M20 18H25" stroke="#2D231F" stroke-width="1.5" stroke-linecap="round"/>
</svg>

<svg xmlns="http://www.w3.org/2000/svg" width="45" height="45"><g fill="none" fill-rule="evenodd" stroke="#2F1B17" stroke-width="1.5" stroke-linecap="round" stroke-linejoin="round"><g fill="#F0D6C0" stroke-linecap="butt"><path d="M9 36c3.39-.97 10.11.43 13.5-2 3.39 2.43 10.11 1.03 13.5 2 0 0 1.65.54 3 2-.68.97-1.65.99-3 .5-3.39-.97-10.11.46-13.5-1-3.39 1.46-10.11.03-13.5 1-1.354.49-2.323.47-3-.5 1.354-1.94 3-2 3-2z"/><path d="M15 32c2.5 2.5 12.5 2.5 15 0 .5-1.5 0-2 0-2 0-2.5-2.5-4-2.5-4 5.5-1.5 6-11.5-5-15.5-11 4-10.5 14-5 15.5 0 0-2.5 1.5-2.5 4 0 0-.5.5 0 2z"/><path d="M25 8a2.5 2.5 0 1 1-5 0 2.5 2.5 0 1 1 5 0z"/></g><path d="M17.5 26h10M15 30h15m-7.5-14.5v5M20 18h5" stroke-linejoin="miter"/></g></svg>
